header/AirCanada.svg

<svg height="64" viewBox="0 0 251 64" width="251" xmlns="http://www.w3.org/2000/svg"><g fill="none" fill-rule="evenodd"><path d="m0 0h251v64h-251z"/><g fill-rule="nonzero" transform="translate(18 18)"><path d="m14.8182957 19.9230769c0-.9423077.4041354-1.0769231 1.3471178-.5384615 1.6165414.9423077 3.2330827 1.75 3.2330827 1.75 0-.5384616.5388472-.9423077 1.4818296-.6730769.9429825.2692307 1.8859649.4038461 1.8859649.4038461s-.5388471-1.2115384-.8082706-1.75c-.4041354-.9423077 0-1.4807692.4041353-1.6153846 0 0-.5388471-.4038462-.9429825-.6730769-.8082706-.5384616-.6735589-1.2115385.1347118-1.4807693 1.0776942-.5384615 2.5595238-1.076923 2.5595238-1.076923-.4041353-.2692308-.9429824-.9423077-.4041353-1.8846154.5388471-.8076923 1.4818296-2.0192308 1.4818296-2.0192308s-1.4818296 0-2.5595239 0c-.9429824 0-1.212406-.80769229-1.212406-1.34615383 0 0-1.4818295 1.07692303-2.5595238 1.75000003-.9429824.6730769-1.7512531 0-1.6165413-1.07692311.2694235-1.61538461.4041353-3.5.4041353-3.5-.5388471.53846154-1.4818296.40384616-2.0206767-.40384615-.6735589-1.34615385-1.3471178-2.96153846-1.3471178-2.96153846s-.6735589 1.61538461-1.3471178 2.96153846c-.4041353.80769231-1.3471178.94230769-1.8859649.53846154 0 0 .1347118 1.88461538.4041354 3.5.1347117.94230772-.6735589 1.61538462-1.6165414.94230772-1.07769424-.673077-2.69423559-1.75000003-2.69423559-1.75000003 0 .53846154-.26942356 1.21153843-1.21240601 1.34615383-1.07769424 0-2.55952381 0-2.55952381 0s.94298245 1.2115385 1.48182957 2.0192308 0 1.6153846-.40413534 1.8846154c0 0 1.3471178.6730769 2.55952381 1.076923.80827068.4038462 1.07769424.9423077.13471178 1.4807693-.26942356.2692307-.94298246.6730769-.94298246.6730769.53884712.1346154.94298246.6730769.53884712 1.6153846-.26942356.5384616-.80827067 1.75-.80827067 1.75s.94298245-.2692308 1.88596491-.4038461c.94298245-.2692308 1.34711779.2692307 1.48182957.6730769 0 0 1.61654132-.9423077 3.23308272-1.75.8082707-.5384616 1.3471178-.2692308 1.3471178.5384615v2.2884616c0 1.3461538-.2694236 2.6923077-.6735589 3.5-6.06203009-.673077-11.18107771-5.5192308-11.18107771-11.9807693 0-6.59615382 5.52318296-11.9807692 12.39348371-11.9807692 6.8703008 0 12.3934837 5.38461538 12.3934837 11.9807692 0 6.1923077-4.849624 11.3076923-11.0463659 11.9807693v1.6153846c7.2744361-.6730769 12.9323308-6.4615385 12.9323308-13.5961539 0-7.67307689-6.4661654-13.7307692-14.4141604-13.7307692-7.81328319 0-14.2794486 6.05769231-14.2794486 13.5961538 0 6.5961539 4.98433584 12.1153847 11.585213 13.3269231 1.0776943.2692308 1.7512532.4038462 2.4248121 1.0769231.6735589-1.3461538.8082706-4.0384615.8082706-5.5192308z" fill="#f01428"/><g fill="#000"><path d="m72.6096491 20.8653846v-14.53846152h7.1397243c3.7719299 0 5.523183 1.61538461 5.6578948 3.63461538 0 .94230774-.1347118 1.88461534-.8082707 2.55769234-.6735589.6730769-.9429825.9423077-2.1553885 1.6153846l5.3884712 6.8653846h-3.9066416l-4.8496241-6.1923077h-3.2330827v6.0576923zm3.2330827-7.9423077h1.4818296c3.9066416 0 4.7149123-.6730769 4.7149123-2.5576923 0-1.88461537-1.7512531-2.15384614-4.310777-2.15384614h-1.8859649z"/><path d="m40.6829574 20.8653846 6.3314536-14.53846152h3.9066416l6.3314537 14.53846152h-3.9066416l-1.7512532-3.9038461h-6.7355889l-1.7512532 3.9038461zm4.9843358-5.7884615h4.9843359l-2.5595238-5.78846156z"/><path d="m61.697995 6.326923h3.367794v14.538462h-3.367794z"/><path d="m112.080201 20.3269231c-1.616542.6730769-3.637219.9423077-6.062031.9423077-2.828947 0-5.119047-.673077-6.7355885-2.0192308-1.6165414-1.3461538-2.4248121-3.2307692-2.4248121-5.6538462 0-2.4230769.8082707-4.44230765 2.4248121-5.65384611 1.6165415-1.34615384 3.9066415-2.01923077 7.0050125-2.01923077 1.885965 0 3.77193.13461539 5.792607.53846154v2.42307692c-2.155389-.67307692-4.176066-.94230769-5.657895-.94230769-1.885965 0-3.233083.53846154-4.310777 1.48076923-.942983.94230768-1.48183 2.42307688-1.48183 4.17307688s.538847 3.0961539 1.616542 4.173077c1.077694.9423077 2.559523 1.4807692 4.445488 1.4807692 1.751253 0 3.637218-.4038462 5.388472-1.0769231z"/><path d="m116.256266 20.8653846 6.331453-14.53846152h3.906642l6.331454 14.53846152h-3.906642l-1.751253-3.9038461h-6.735589l-1.751253 3.9038461zm5.119047-5.7884615h4.984336l-2.424812-5.78846156z"/><path d="m158.421053 20.8653846 6.331453-14.53846152h3.906642l6.331454 14.53846152h-3.906642l-1.751253-3.9038461h-6.735589l-1.751253 3.9038461zm4.984335-5.7884615h4.984336l-2.559523-5.78846156z"/><path d="m205.839599 9.28846154 2.559524 5.78846156h-4.984336zm-1.077694-2.96153846-6.331454 14.53846152h2.424812l1.751253-3.9038461h6.735589l1.751253 3.9038461h3.906642l-6.331454-14.53846152z"/><path d="m137.675439 20.8653846v-14.53846152h3.906641l9.160401 10.36538462v-10.36538462h2.828948v14.53846152h-3.637218l-9.429825-10.90384614v10.90384614z"/><path d="m179.705514 20.8653846v-14.53846152h7.005012c2.559524 0 4.445489.67307692 5.792607 1.75 1.347118 1.21153846 2.020677 2.96153842 2.020677 5.11538462 0 2.4230769-.673559 4.3076923-2.155389 5.5192308-1.48183 1.3461538-3.367794 2.0192307-5.927318 2.0192307h-6.735589zm3.367794-2.0192308h2.559524c1.751253 0 3.098371-.4038461 4.041353-1.3461538.942983-.9423077 1.347118-2.1538462 1.347118-4.0384615 0-1.3461539-.404135-2.5576923-1.077694-3.50000004-.538847-.67307692-1.077694-1.07692308-1.751253-1.34615384-.673559-.26923077-1.616541-.40384616-2.963659-.40384616h-2.020677v10.63461534z"/></g></g></g></svg>

<?xml version="1.0" encoding="UTF-8"?>
<svg width="251px" height="64px" viewBox="0 0 251 64" version="1.1" xmlns="http://www.w3.org/2000/svg" xmlns:xlink="http://www.w3.org/1999/xlink">
    <title>AirCanada</title>
    <g id="Taskboard" stroke="none" stroke-width="1" fill="none" fill-rule="evenodd">
        <g id="AirCanada">
            <rect id="Rectangle" x="0" y="0" width="251" height="64"></rect>
            <g id="canadalogo" transform="translate(18.000000, 18.000000)" fill-rule="nonzero">
                <path d="M14.8182957,19.9230769 C14.8182957,18.9807692 15.2224311,18.8461538 16.1654135,19.3846154 C17.7819549,20.3269231 19.3984962,21.1346154 19.3984962,21.1346154 C19.3984962,20.5961538 19.9373434,20.1923077 20.8803258,20.4615385 C21.8233083,20.7307692 22.7662907,20.8653846 22.7662907,20.8653846 C22.7662907,20.8653846 22.2274436,19.6538462 21.9580201,19.1153846 C21.5538847,18.1730769 21.9580201,17.6346154 22.3621554,17.5 C22.3621554,17.5 21.8233083,17.0961538 21.4191729,16.8269231 C20.6109023,16.2884615 20.745614,15.6153846 21.5538847,15.3461538 C22.6315789,14.8076923 24.1134085,14.2692308 24.1134085,14.2692308 C23.7092732,14 23.1704261,13.3269231 23.7092732,12.3846154 C24.2481203,11.5769231 25.1911028,10.3653846 25.1911028,10.3653846 C25.1911028,10.3653846 23.7092732,10.3653846 22.6315789,10.3653846 C21.6885965,10.3653846 21.4191729,9.55769231 21.4191729,9.01923077 C21.4191729,9.01923077 19.9373434,10.0961538 18.8596491,10.7692308 C17.9166667,11.4423077 17.108396,10.7692308 17.2431078,9.69230769 C17.5125313,8.07692308 17.6472431,6.19230769 17.6472431,6.19230769 C17.108396,6.73076923 16.1654135,6.59615385 15.6265664,5.78846154 C14.9530075,4.44230769 14.2794486,2.82692308 14.2794486,2.82692308 C14.2794486,2.82692308 13.6058897,4.44230769 12.9323308,5.78846154 C12.5281955,6.59615385 11.585213,6.73076923 11.0463659,6.32692308 C11.0463659,6.32692308 11.1810777,8.21153846 11.4505013,9.82692308 C11.585213,10.7692308 10.7769424,11.4423077 9.8339599,10.7692308 C8.75626566,10.0961538 7.13972431,9.01923077 7.13972431,9.01923077 C7.13972431,9.55769231 6.87030075,10.2307692 5.9273183,10.3653846 C4.84962406,10.3653846 3.36779449,10.3653846 3.36779449,10.3653846 C3.36779449,10.3653846 4.31077694,11.5769231 4.84962406,12.3846154 C5.38847118,13.1923077 4.84962406,14 4.44548872,14.2692308 C4.44548872,14.2692308 5.79260652,14.9423077 7.00501253,15.3461538 C7.81328321,15.75 8.08270677,16.2884615 7.13972431,16.8269231 C6.87030075,17.0961538 6.19674185,17.5 6.19674185,17.5 C6.73558897,17.6346154 7.13972431,18.1730769 6.73558897,19.1153846 C6.46616541,19.6538462 5.9273183,20.8653846 5.9273183,20.8653846 C5.9273183,20.8653846 6.87030075,20.5961538 7.81328321,20.4615385 C8.75626566,20.1923077 9.160401,20.7307692 9.29511278,21.1346154 C9.29511278,21.1346154 10.9116541,20.1923077 12.5281955,19.3846154 C13.3364662,18.8461538 13.8753133,19.1153846 13.8753133,19.9230769 L13.8753133,22.2115385 C13.8753133,23.5576923 13.6058897,24.9038462 13.2017544,25.7115385 C7.13972431,25.0384615 2.02067669,20.1923077 2.02067669,13.7307692 C2.02067669,7.13461538 7.54385965,1.75 14.4141604,1.75 C21.2844612,1.75 26.8076441,7.13461538 26.8076441,13.7307692 C26.8076441,19.9230769 21.9580201,25.0384615 15.7612782,25.7115385 L15.7612782,27.3269231 C23.0357143,26.6538462 28.693609,20.8653846 28.693609,13.7307692 C28.693609,6.05769231 22.2274436,0 14.2794486,0 C6.46616541,0 0,6.05769231 0,13.5961538 C0,20.1923077 4.98433584,25.7115385 11.585213,26.9230769 C12.6629073,27.1923077 13.3364662,27.3269231 14.0100251,28 C14.683584,26.6538462 14.8182957,23.9615385 14.8182957,22.4807692 L14.8182957,19.9230769 Z" id="Path" fill="#F01428"></path>
                <path d="M72.6096491,20.8653846 L72.6096491,6.32692308 L79.7493734,6.32692308 C83.5213033,6.32692308 85.2725564,7.94230769 85.4072682,9.96153846 C85.4072682,10.9038462 85.2725564,11.8461538 84.5989975,12.5192308 C83.9254386,13.1923077 83.656015,13.4615385 82.443609,14.1346154 L87.8320802,21 L83.9254386,21 L79.0758145,14.8076923 L75.8427318,14.8076923 L75.8427318,20.8653846 L72.6096491,20.8653846 Z M75.8427318,12.9230769 L77.3245614,12.9230769 C81.231203,12.9230769 82.0394737,12.25 82.0394737,10.3653846 C82.0394737,8.48076923 80.2882206,8.21153846 77.7286967,8.21153846 L75.8427318,8.21153846 L75.8427318,12.9230769 Z" id="Shape" fill="#000000"></path>
                <path d="M40.6829574,20.8653846 L47.014411,6.32692308 L50.9210526,6.32692308 L57.2525063,20.8653846 L53.3458647,20.8653846 L51.5946115,16.9615385 L44.8590226,16.9615385 L43.1077694,20.8653846 L40.6829574,20.8653846 Z M45.6672932,15.0769231 L50.6516291,15.0769231 L48.0921053,9.28846154 L45.6672932,15.0769231 Z" id="Shape" fill="#000000"></path>
                <rect id="Rectangle" fill="#000000" x="61.697995" y="6.32692308" width="3.36779449" height="14.5384615"></rect>
                <path d="M112.080201,20.3269231 C110.463659,21 108.442982,21.2692308 106.01817,21.2692308 C103.189223,21.2692308 100.899123,20.5961538 99.2825815,19.25 C97.6660401,17.9038462 96.8577694,16.0192308 96.8577694,13.5961538 C96.8577694,11.1730769 97.6660401,9.15384615 99.2825815,7.94230769 C100.899123,6.59615385 103.189223,5.92307692 106.287594,5.92307692 C108.173559,5.92307692 110.059524,6.05769231 112.080201,6.46153846 L112.080201,8.88461538 C109.924812,8.21153846 107.904135,7.94230769 106.422306,7.94230769 C104.536341,7.94230769 103.189223,8.48076923 102.111529,9.42307692 C101.168546,10.3653846 100.629699,11.8461538 100.629699,13.5961538 C100.629699,15.3461538 101.168546,16.6923077 102.246241,17.7692308 C103.323935,18.7115385 104.805764,19.25 106.691729,19.25 C108.442982,19.25 110.328947,18.8461538 112.080201,18.1730769 L112.080201,20.3269231 Z" id="Path" fill="#000000"></path>
                <path d="M116.256266,20.8653846 L122.587719,6.32692308 L126.494361,6.32692308 L132.825815,20.8653846 L128.919173,20.8653846 L127.16792,16.9615385 L120.432331,16.9615385 L118.681078,20.8653846 L116.256266,20.8653846 Z M121.375313,15.0769231 L126.359649,15.0769231 L123.934837,9.28846154 L121.375313,15.0769231 Z" id="Shape" fill="#000000"></path>
                <path d="M158.421053,20.8653846 L164.752506,6.32692308 L168.659148,6.32692308 L174.990602,20.8653846 L171.08396,20.8653846 L169.332707,16.9615385 L162.597118,16.9615385 L160.845865,20.8653846 L158.421053,20.8653846 Z M163.405388,15.0769231 L168.389724,15.0769231 L165.830201,9.28846154 L163.405388,15.0769231 Z" id="Shape" fill="#000000"></path>
                <path d="M205.839599,9.28846154 L208.399123,15.0769231 L203.414787,15.0769231 L205.839599,9.28846154 Z M204.761905,6.32692308 L198.430451,20.8653846 L200.855263,20.8653846 L202.606516,16.9615385 L209.342105,16.9615385 L211.093358,20.8653846 L215,20.8653846 L208.668546,6.32692308 L204.761905,6.32692308 L204.761905,6.32692308 Z" id="Shape" fill="#000000"></path>
                <polygon id="Path" fill="#000000" points="137.675439 20.8653846 137.675439 6.32692308 141.58208 6.32692308 150.742481 16.6923077 150.742481 6.32692308 153.571429 6.32692308 153.571429 20.8653846 149.934211 20.8653846 140.504386 9.96153846 140.504386 20.8653846"></polygon>
                <path d="M179.705514,20.8653846 L179.705514,6.32692308 L186.710526,6.32692308 C189.27005,6.32692308 191.156015,7 192.503133,8.07692308 C193.850251,9.28846154 194.52381,11.0384615 194.52381,13.1923077 C194.52381,15.6153846 193.850251,17.5 192.368421,18.7115385 C190.886591,20.0576923 189.000627,20.7307692 186.441103,20.7307692 L179.705514,20.7307692 L179.705514,20.8653846 Z M183.073308,18.8461538 L185.632832,18.8461538 C187.384085,18.8461538 188.731203,18.4423077 189.674185,17.5 C190.617168,16.5576923 191.021303,15.3461538 191.021303,13.4615385 C191.021303,12.1153846 190.617168,10.9038462 189.943609,9.96153846 C189.404762,9.28846154 188.865915,8.88461538 188.192356,8.61538462 C187.518797,8.34615385 186.575815,8.21153846 185.228697,8.21153846 L183.20802,8.21153846 L183.20802,18.8461538 L183.073308,18.8461538 Z" id="Shape" fill="#000000"></path>
            </g>
        </g>
    </g>
</svg>
